packages/components/src/components/icon/common/ic-document-number-verification.svg

<svg width="16" height="12" viewBox="0 0 16 12" fill="none" xmlns="http://www.w3.org/2000/svg">
<path fill-rule="evenodd" clip-rule="evenodd" d="M2.5 1C1.67157 1 1 1.67157 1 2.5V9.5C1 10.3284 1.67157 11 2.5 11H13.5C14.3284 11 15 10.3284 15 9.5V2.5C15 1.67157 14.3284 1 13.5 1H2.5ZM0 2.5C0 1.11929 1.11929 0 2.5 0H13.5C14.8807 0 16 1.11929 16 2.5V9.5C16 10.8807 14.8807 12 13.5 12H2.5C1.11929 12 0 10.8807 0 9.5V2.5Z" fill="var(--fill-color1)"/>
<path fill-rule="evenodd" clip-rule="evenodd" d="M2.5 3C2.77614 3 3 3.22386 3 3.5V8.5C3 8.77614 2.77614 9 2.5 9C2.22386 9 2 8.77614 2 8.5V3.5C2 3.22386 2.22386 3 2.5 3Z" fill="var(--fill-color1)"/>
<path fill-rule="evenodd" clip-rule="evenodd" d="M4.5 3C4.22386 3 4 3.22386 4 3.5V8.5C4 8.77614 4.22386 9 4.5 9L6.54328 8.99896C6.56529 8.99804 6.59468 8.99633 6.6304 8.99314C6.70167 8.98677 6.79923 8.97444 6.91448 8.95043C7.14336 8.90274 7.45248 8.80682 7.765 8.6115C8.42147 8.20121 9 7.40991 9 6C9 4.59009 8.42147 3.7988 7.765 3.3885C7.45248 3.19318 7.14336 3.09726 6.91448 3.04957C6.79923 3.02556 6.70167 3.01323 6.6304 3.00686C6.59468 3.00367 6.56529 3.00196 6.54328 3.00104C6.53226 3.00058 6.52306 3.00032 6.51582 3.00018L6.50641 3.00003L6.50282 3.00001L6.50132 3L4.5 3ZM6.50165 7.99982L6.49641 8H5V4H6.49641L6.50165 4.00018C6.50893 4.00048 6.52251 4.00121 6.54147 4.0029C6.57958 4.0063 6.63827 4.0135 6.71052 4.02855C6.85664 4.05899 7.04752 4.11932 7.235 4.2365C7.57853 4.4512 8 4.90991 8 6C8 7.09009 7.57853 7.5488 7.235 7.7635C7.04752 7.88068 6.85664 7.94101 6.71052 7.97145C6.63827 7.9865 6.57958 7.9937 6.54147 7.9971C6.52251 7.99879 6.50893 7.99952 6.50165 7.99982Z" fill="var(--fill-color1)"/>
<path fill-rule="evenodd" clip-rule="evenodd" d="M11.9903 3.59803C12.0444 3.32725 11.8688 3.06384 11.5981 3.00968C11.3273 2.95553 11.0639 3.13114 11.0097 3.40192L10.7901 4.49997H10.5C10.2239 4.49997 10 4.72383 10 4.99997C10 5.27612 10.2239 5.49997 10.5 5.49997H10.5901L10.3901 6.49997H10C9.72386 6.49997 9.5 6.72383 9.5 6.99997C9.5 7.27612 9.72386 7.49997 10 7.49997H10.1901L10.0097 8.40192C9.95555 8.6727 10.1312 8.93611 10.4019 8.99026C10.6727 9.04442 10.9361 8.86881 10.9903 8.59803L11.2099 7.49997H12.1901L12.0097 8.40192C11.9556 8.6727 12.1312 8.93611 12.4019 8.99026C12.6727 9.04442 12.9361 8.86881 12.9903 8.59803L13.2099 7.49997H13.5C13.7761 7.49997 14 7.27612 14 6.99997C14 6.72383 13.7761 6.49997 13.5 6.49997H13.4099L13.6099 5.49997H14C14.2761 5.49997 14.5 5.27612 14.5 4.99997C14.5 4.72383 14.2761 4.49997 14 4.49997H13.8099L13.9903 3.59803C14.0444 3.32725 13.8688 3.06384 13.5981 3.00968C13.3273 2.95553 13.0639 3.13114 13.0097 3.40192L12.7901 4.49997H11.8099L11.9903 3.59803ZM11.6099 5.5H12.5901L12.3901 6.5H11.4099L11.6099 5.5Z" fill="var(--fill-color1)"/>
</svg>

<svg xmlns="http://www.w3.org/2000/svg" width="16" height="12" fill="none"><path fill="var(--fill-color1)" fill-rule="evenodd" d="M2.5 1A1.5 1.5 0 0 0 1 2.5v7A1.5 1.5 0 0 0 2.5 11h11A1.5 1.5 0 0 0 15 9.5v-7A1.5 1.5 0 0 0 13.5 1h-11ZM0 2.5A2.5 2.5 0 0 1 2.5 0h11A2.5 2.5 0 0 1 16 2.5v7a2.5 2.5 0 0 1-2.5 2.5h-11A2.5 2.5 0 0 1 0 9.5v-7Z" clip-rule="evenodd"/><path fill="var(--fill-color1)" fill-rule="evenodd" d="M2.5 3a.5.5 0 0 1 .5.5v5a.5.5 0 0 1-1 0v-5a.5.5 0 0 1 .5-.5ZM4.5 3a.5.5 0 0 0-.5.5v5a.5.5 0 0 0 .5.5l2.043-.001.087-.006a2.621 2.621 0 0 0 1.135-.382C8.421 8.201 9 7.41 9 6c0-1.41-.579-2.201-1.235-2.611A2.621 2.621 0 0 0 6.515 3H4.5Zm2.002 5H5V4h1.502l.04.003a1.621 1.621 0 0 1 .694.234c.343.214.764.673.764 1.763 0 1.09-.421 1.549-.765 1.763A1.621 1.621 0 0 1 6.502 8ZM11.99 3.598a.5.5 0 0 0-.98-.196L10.79 4.5h-.29a.5.5 0 0 0 0 1h.09l-.2 1H10a.5.5 0 0 0 0 1h.19l-.18.902a.5.5 0 0 0 .98.196l.22-1.098h.98l-.18.902a.5.5 0 0 0 .98.196l.22-1.098h.29a.5.5 0 0 0 0-1h-.09l.2-1H14a.5.5 0 0 0 0-1h-.19l.18-.902a.5.5 0 0 0-.98-.196L12.79 4.5h-.98l.18-.902ZM11.61 5.5h.98l-.2 1h-.98l.2-1Z" clip-rule="evenodd"/></svg>
